-----BEGIN PGP PRIVATE KEY BLOCK-----

lQcYBGnMiuUBEADBQXZigg8ATvNeiDMrzKMVW6R7NYyMPo0+HEpzmcbYpIBxfluF
70lNbxhrbLGMdLVfhEcY3KAndNVmVMR5hLw7ePyTu18gkrOWZEsWyYGghloqxb68
AVab4S5n/z04hlfNuxtvvouKefyMa5gsJZvrShQh3mbmyVslGLTTX8DZKNch97om
HYVh8l6S27eK55eZjgmSj3rD5CpEehO18fBJTIXq+oroxpMS+oyTFtoOlI4MW4zb
LNwP+gdPPDpNDXo8hbukhs916o4vrciwlo9DQNSVBEI75S3lNvmHsGp5WxI4tGob
TxMaWoT2QaeRylaKdc0YtMRmMcG2LEgmR+/W0LEE1b6GZj5dYc+dX7OHjk7a2g0Y
fjj5ftHcY7PSaYmEkmmqb4t+70wlI/VrnyQ31QtRNCqD/Occ/O0YZD7NPe7qjm8/
Dks4TAkpakvfnCdFGbC24JfrfaFsep3iloAwpZMq1hJqeKNOUSu5mRZg0kGIPs9f
g19QrkFam+7BzM4IR86GkKNgrbVO9csF7tXDceOAzI2YdYWcr/EEymYkCJJvdxfE
r0+mgq64TLQ1WBeQhJGFUs3N3Cs1rYJfcnZEzamwsP0+D/fz5a3MVqo5ii6g8ec0
6c1BqYfCsu04+goJI434SiNblxJybV4qN1MCa4VyBotH2b3RWcllU+AUgQARAQAB
AA/9ErHuXcJy6M7aanhOyfOIicAFKgGgxG7nKz1houv7AVltjv0gJbVjoBTplffM
d7fRFWnGlnQ+Xn7GB5mW7aH+cxrlxTVUsyIZ8ygl3vEUpAanOZjKViXjft4iZv9Z
KOsPGqj5cx6J4XYiTSO583habGEs0CdziSsssOqiUInkbiWOJTwxou8LaJGhnj+Y
0nxLrThBOw87+zAK+jeciUb7vZ2EXXpJ/pF6KBV6jJ6i7tLmaHHhTxEYg0em1h6P
jcVqYCk4QSbk8iVkBp7/SXzxJDqE7hr8vM5TeadvLXYOoMmDel6SnqxwPsYHs4pf
p2H9a/TQJ84R60hwMrs3KhPesrv7BURGPMmAT+9TAjTuUFeTyeoOxU7I4Br32KyX
G3wkiADeRPrt1KO4ezMPMqTXBppuM3QEryYXFWpLF1m/dPV3aUAzVRaY91HwvQPU
ie52b2n0VR3xHXtIaHvV74m9/7ziY5xwsMYstjYNUk8DHQD0pLGcovhfrUMnZOa3
Rf9vYY2Ia0TaJmEHklFWnJcoJN1ulaqTQAOh47He1idvTbKfvdxUga766lHj6Dxe
loWzPNpCHuBRgwGRLaygP6XLbqnJQsz6LLYrd0oZ/2N6rBct58aRagKdvBsv35ju
g6ynACbjaS8TLa+0iR05ZQntJLUTD7gdQ92VtQRdEWFGtwkIAMQvGo0QksxYIasQ
7SaEmJjE39uDHj58rEG2hhGpjZIteZer3yNrgwAsJ4mta7CcX2MioLrXjVdMtrsG
cD81iGvrgqkvWbsWIVWPHwlF146kZNx9k4WlwJ6N1w2d9W9TB+4MExNxuh+OXkbU
myI0/cxIajGkdGz3eRHQn3BSoNGDi+a7NjHOAJYihduzuw+/un/fhi1VMoLAR+uE
8gMM+3/Py6Hx8Y2Op7NGx5aPZvz4Xrfwmbhustrq1mckfSKgXDnimj5GquSsn/Nk
h8cCNwlGSMQE9fUlVUQNnmxsEvLYfPJDQpx1EKunaEm8uqMvUPb5Me48bkxQdl0E
iA2rNRkIAPwty4XrboLk7bXoxwzccpXGKowThSLz7HSqaR1UIoTQO81ZWgFN+n0L
G4605QW/ORbyfbfkMO2uU5EW9bhK1NyT55c2kQ0WIdVrN9QG3SJwK45Y5RwJIZp4
rYHb4LWBzhhgowAMMfx7gDGwTB//T/OPKoIc8uPyGcT2/X/Dcx6yzSQwiAcIKcot
ouv9n8nXlRV4fA0ugwQfaMZb7kPLSQMh4qepJd1XnQOjO3UnwMrACdljuZxdXb0Z
S5+B2ySM/XrZ/zHzZMjaMlz8tDS4NEHDui0Jyg5nLR9iat3Kka2BAxGbTc7l/Y62
nJ6yR1ADGgYf7lcB9ps9MFgMUidMH6kH/0iv0AYbd368Ryav6g68U8IOavk2q3RG
yxCQAolg7RdW5BSxdMQLtV0FwXK5qM+gsQh1pxiC92H2fdGdIm2UAVspmXz++ACi
2TsJTUMmM3R8qdttTC+teMQLF1lN6CMQJ487o9RQCCg9NufG492zYY5h8KEb0MX7
cLjuQaxQh9JswHb3noySqxZSicJGcC/HDXcvbgCUeYdY3vqHs+FJceMFCikmYhkA
aHR2mayDigVq2Jk7dzLPSm6ukDvbU0bnSE/ZPTWT38EX+TaCQu9oA8fkmbDOFhxN
Evh8/OldSVUz2PJxAY5pURFozfR3tNBmotN6HpETiZzv1ZAP8VX0iQF15rQfSG9v
a2Jhc2UgPGNvbnRhY3RAaG9va2Jhc2UuYXBwPokCUgQTAQoAPBYhBHzQbii8kZKe
YbROWl1JQnK83nUGBQJpzIrlAxsvBAULCQgHAgIiAgYVCgkICwIEFgIDAQIeBwIX
gAAKCRBdSUJyvN51BtR8D/9yT28zq/WJrJfBo9c5EeRjdBvu5uAiXT8mYDqZr3Jy
ULmR/R7/EvU/Sx0hlAAEmPdIqekXqmTvCFPx61Xfzn+kXbX3vJreU3oWFbi2Ft+k
7KGtHeYcYMaejotYJgAsbZiOhbhRsp3sW32qMQ2Jr50FCq1JWQ2QxXiPs8xvg5xf
3J0XXXQtGWAPrHmKtuw94p2cjEF5YOUjSMIqRecTNIvSS6KhaY3WwQukX6dHqXrT
R7psvcH9UogwTdghH2ssZLgtwkp8MHDLE3wf2DsSYTikLYZ1H9fyBj9LJQTbqkYh
LHI5AUpnMl9fGTb+PWmGi1ntt5+uRqAFlW0ylGtAEBf3MWI7yguPwNqiRVgQ3m1r
DP+P2qnKJ0Fp1PpPRe1LSGABJgtlBFfvYdKqzWyrqNm8PI4i7c/Q1+OIpoBwxdY4
e+yc1Ndj3yxtTu2dyLaMN1w5YHdnx2K3YkVEaiJ2aR7Q4ed1wNDO08KjZQ+uLwJH
2oyez1foieyxxnN8plOy9KdrsLtMWMb52IfsgLn0k74nvzfavAYL9nhziibcMiD1
yploufpXNjBuVtcHH5QDzLJV8ZvMbJC2wePWBMfpgIzot5JRR6Y8COqwPZ5W9F1Q
jlxuBLb/WuDWBGCAJoFrfECq51Akmwmi8rqtWsYoulzZonEBFfycHqPlK71RLLYQ
aw==
=WJW0
-----END PGP PRIVATE KEY BLOCK-----
