-----BEGIN PGP PUBLIC KEY BLOCK-----

mQINBGnMiuUBEADBQXZigg8ATvNeiDMrzKMVW6R7NYyMPo0+HEpzmcbYpIBxfluF
70lNbxhrbLGMdLVfhEcY3KAndNVmVMR5hLw7ePyTu18gkrOWZEsWyYGghloqxb68
AVab4S5n/z04hlfNuxtvvouKefyMa5gsJZvrShQh3mbmyVslGLTTX8DZKNch97om
HYVh8l6S27eK55eZjgmSj3rD5CpEehO18fBJTIXq+oroxpMS+oyTFtoOlI4MW4zb
LNwP+gdPPDpNDXo8hbukhs916o4vrciwlo9DQNSVBEI75S3lNvmHsGp5WxI4tGob
TxMaWoT2QaeRylaKdc0YtMRmMcG2LEgmR+/W0LEE1b6GZj5dYc+dX7OHjk7a2g0Y
fjj5ftHcY7PSaYmEkmmqb4t+70wlI/VrnyQ31QtRNCqD/Occ/O0YZD7NPe7qjm8/
Dks4TAkpakvfnCdFGbC24JfrfaFsep3iloAwpZMq1hJqeKNOUSu5mRZg0kGIPs9f
g19QrkFam+7BzM4IR86GkKNgrbVO9csF7tXDceOAzI2YdYWcr/EEymYkCJJvdxfE
r0+mgq64TLQ1WBeQhJGFUs3N3Cs1rYJfcnZEzamwsP0+D/fz5a3MVqo5ii6g8ec0
6c1BqYfCsu04+goJI434SiNblxJybV4qN1MCa4VyBotH2b3RWcllU+AUgQARAQAB
tB9Ib29rYmFzZSA8Y29udGFjdEBob29rYmFzZS5hcHA+iQJSBBMBCgA8FiEEfNBu
KLyRkp5htE5aXUlCcrzedQYFAmnMiuUDGy8EBQsJCAcCAiICBhUKCQgLAgQWAgMB
Ah4HAheAAAoJEF1JQnK83nUG1HwP/3JPbzOr9Ymsl8Gj1zkR5GN0G+7m4CJdPyZg
OpmvcnJQuZH9Hv8S9T9LHSGUAASY90ip6ReqZO8IU/HrVd/Of6Rdtfe8mt5TehYV
uLYW36Tsoa0d5hxgxp6Oi1gmACxtmI6FuFGynexbfaoxDYmvnQUKrUlZDZDFeI+z
zG+DnF/cnRdddC0ZYA+seYq27D3inZyMQXlg5SNIwipF5xM0i9JLoqFpjdbBC6Rf
p0epetNHumy9wf1SiDBN2CEfayxkuC3CSnwwcMsTfB/YOxJhOKQthnUf1/IGP0sl
BNuqRiEscjkBSmcyX18ZNv49aYaLWe23n65GoAWVbTKUa0AQF/cxYjvKC4/A2qJF
WBDebWsM/4/aqconQWnU+k9F7UtIYAEmC2UEV+9h0qrNbKuo2bw8jiLtz9DX44im
gHDF1jh77JzU12PfLG1O7Z3Itow3XDlgd2fHYrdiRURqInZpHtDh53XA0M7TwqNl
D64vAkfajJ7PV+iJ7LHGc3ymU7L0p2uwu0xYxvnYh+yAufSTvie/N9q8Bgv2eHOK
JtwyIPXKmWi5+lc2MG5W1wcflAPMslXxm8xskLbB49YEx+mAjOi3klFHpjwI6rA9
nlb0XVCOXG4Etv9a4NYEYIAmgWt8QKrnUCSbCaLyuq1axii6XNmicQEV/Jweo+Ur
vVEsthBr
=llrJ
-----END PGP PUBLIC KEY BLOCK-----
